X:1
T:Title
%%score { 1 | 2 }
L:1/8
Q:1/4=112
M:3/4
K:F
V:1 treble nm="Grand Piano"
V:2 treble 
V:1
 A3 A A2 | A2 _A2 =A2 | c2 =B2 _B2 | A2 G2 F2 | E3 F [B,EG]2 | [DEB]2 [CEA]2 [B,EG]2 | %6
w: Chas.~H.~Gabriel * *||||||
 [A,F]2 [A,F]2 [CEG]2 | A6 | c3 c c2 | [Fc]2 [A,CF]2 [A,CF]2 | [B,FB]2 [B,FB]2 [B,FB]2 | %11
w: |||||
 [B,FB]2 [B,F]2 [B,F]2 | [CFA]2 [CFA]2 [DFG]2 | [CFc]2 [CFc]2 [CFd]2 | [CGe]2 [CGe]2 [=B,Fd]2 | %15
w: ||||
[M:2/4] [CEc]4 |[M:1/4] GG |[M:3/4] c4 GG | c4 GG | c4 G2 | c6 | c3 d e2 | f2 c2 [DFB]2 | %23
w: ||||||||
 [CFA]4 [CFA]<[B,EG] | [A,CF]6 |] %25
w: ||
V:2
 [F,CF]3 [F,CF] [F,CF]2 | [F,CF]2 [F,=B,F]2 [F,CF]2 | [A,CF]2 [_A,DF]2[K:bass] [G,CE]2 | %3
 [F,CF]2 [E,C]2 [D,G,=B,]2 | [C,G,B,]3 [C,A,C] C,2 | C,2 C,2 C,2 | D,2 D,2 C,2 | [F,CF]6 | %8
 [F,A,F]3 [F,A,F] [F,A,F]2 | [_E,A,]2 E,2 E,2 | D,2 D,2 D,2 | ^C,2 C,2 C,2 | C,2 C,2 B,,2 | %13
 A,,2 A,,2 _A,,2 | G,,2 G,,2 G,,2 |[M:2/4] C,4 |[M:1/4] z2 |[M:3/4] z6 | z6 | z6 | z6 | %21
 [CEG]3 [=B,DG] [_B,CG]2 | [A,CF]2 [A,CF]2[K:bass] B,,2 | C,4 C,<C, | F,,6 |] %25

